X:1
L:1/8
M:2/2
K:D
 c | d2 (cd) D/D/D AF | d2 (cd) Agfe | d2 cd D/D/D (A>F) | EFGA (B2 B) :| c | dD D/D/D (FD)Dc | 
 dD D/D/D Agfe | dD D/D/D (AF)dF | EFGA B2 (Bc) | dD D/D/D (FD)Dc | dAFA Bgfe | dcBA BAGF | 
 EFGA (B2 B) ||!fine! z [G,D]/ | [G,D]6 z2 ||
